public/data-encrypt.svg

<svg width="139" height="125" viewBox="0 0 139 125" fill="none" xmlns="http://www.w3.org/2000/svg">
<g clip-path="url(#clip0_9_94144)">
<path d="M5.93555 9.17306C3.35555 7.68506 1.26953 8.88908 1.26953 11.8611V29.7901C1.35808 31.4077 1.82675 32.9817 2.63745 34.3844C3.44815 35.787 4.57806 36.9788 5.93555 37.8631L87.9963 85.6471V56.9571L5.93555 9.17306Z" fill="white"/>
<path d="M87.9969 86.4983C87.8477 86.4982 87.701 86.4589 87.5718 86.3843L5.09187 38.5403C3.60224 37.5845 2.36285 36.2862 1.47737 34.7537C0.591884 33.2212 0.0859322 31.4992 0.00177923 29.7313V11.7993C-0.113794 11.0656 -0.00425121 10.3141 0.315988 9.64399C0.636228 8.97386 1.15204 8.41658 1.79548 8.04563C2.43893 7.67468 3.17984 7.5075 3.92024 7.56617C4.66063 7.62484 5.36571 7.90662 5.9427 8.37427L88.4217 56.2183C88.551 56.293 88.6584 56.4005 88.733 56.5299C88.8076 56.6592 88.8468 56.8059 88.8467 56.9553V85.6473C88.8467 85.759 88.8248 85.8696 88.7821 85.9728C88.7393 86.076 88.6765 86.1697 88.5975 86.2487C88.5184 86.3276 88.4246 86.3902 88.3214 86.4328C88.2181 86.4755 88.1076 86.4974 87.9959 86.4973L87.9969 86.4983ZM3.42976 9.32627C3.15453 9.3199 2.88273 9.38686 2.64192 9.52027C2.30341 9.788 2.03924 10.1381 1.87483 10.5372C1.71041 10.9362 1.65106 11.3708 1.70271 11.7993V29.7303C1.79484 31.1976 2.22562 32.6236 2.96125 33.8966C3.69688 35.1695 4.71735 36.2548 5.9427 37.0673L87.1429 84.1753V57.4463L5.08869 9.84626C4.58951 9.53336 4.01823 9.35429 3.42976 9.32627Z" fill="#005BEA"/>
<path d="M126.5 79.192L88 56.957V85.651L126.5 107.884C129.081 109.369 131.164 108.172 131.168 105.198V87.266C131.081 85.6476 130.613 84.0726 129.802 82.6695C128.991 81.2664 127.859 80.0748 126.5 79.192Z" fill="white"/>
<path d="M128.588 109.373C127.699 109.346 126.832 109.086 126.073 108.62L87.5735 86.3849C87.4442 86.3102 87.3368 86.2027 87.2622 86.0733C87.1876 85.944 87.1484 85.7973 87.1484 85.6479V56.9569C87.1482 56.8075 87.1874 56.6606 87.262 56.5312C87.3366 56.4017 87.4438 56.2942 87.5732 56.2194C87.7026 56.1447 87.8496 56.1054 87.999 56.1055C88.1485 56.1056 88.2953 56.145 88.4246 56.2199L126.925 78.4549C128.415 79.4099 129.655 80.7082 130.54 82.241C131.425 83.7739 131.93 85.4967 132.012 87.2649V105.196C132.078 105.924 131.946 106.656 131.632 107.316C131.317 107.976 130.83 108.539 130.223 108.946C129.726 109.231 129.162 109.378 128.588 109.373ZM88.8503 85.1579L126.926 107.146C127.273 107.405 127.68 107.571 128.109 107.629C128.539 107.686 128.975 107.633 129.378 107.474C129.718 107.208 129.983 106.858 130.148 106.459C130.313 106.059 130.371 105.624 130.317 105.196V87.2649C130.227 85.7976 129.797 84.3713 129.062 83.0983C128.326 81.8254 127.305 80.7404 126.079 79.9289L88.8535 58.4289L88.8503 85.1579Z" fill="#005BEA"/>
<path d="M121.556 91.285C121.563 91.6037 121.5 91.9201 121.372 92.212C121.262 92.1073 121.144 92.012 121.019 91.927C120.225 91.469 119.582 91.835 119.57 92.737C119.467 92.6983 119.366 92.6522 119.27 92.599L116.645 91.084C116.615 90.5787 116.468 90.0872 116.215 89.6489C115.961 89.2105 115.61 88.8373 115.187 88.559C114.38 88.096 113.729 88.471 113.729 89.401L110.812 87.72C110.786 87.2145 110.641 86.7223 110.388 86.2839C110.135 85.8455 109.781 85.4733 109.357 85.198C108.557 84.732 107.896 85.107 107.896 86.035L104.248 83.935C103.502 84.826 102.215 84.955 100.748 84.107C99.5292 83.3128 98.5147 82.2428 97.7866 80.9836C97.0585 79.7243 96.637 78.3113 96.5566 76.859C96.5566 74.188 98.4328 73.108 100.748 74.444C102.322 75.4561 103.545 76.931 104.248 78.666L119.27 87.338C119.933 87.7712 120.485 88.354 120.882 89.0395C121.279 89.725 121.51 90.4941 121.556 91.285ZM102.279 80.157C102.251 79.6251 102.097 79.1073 101.831 78.6461C101.564 78.1849 101.193 77.7932 100.746 77.503C99.8998 77.013 99.2086 77.41 99.2126 78.388C99.2413 78.9198 99.3952 79.4373 99.6616 79.8985C99.928 80.3597 100.3 80.7514 100.746 81.042C101.595 81.534 102.282 81.139 102.279 80.159V80.157Z" fill="#1B69FF"/>
<path d="M77.2395 67.9857C76.424 67.4547 75.7453 66.7387 75.2588 65.8959C74.7722 65.0532 74.4915 64.1074 74.4395 63.1357C74.4395 61.3477 75.6925 60.6277 77.2395 61.5187C78.0548 62.0513 78.7331 62.7685 79.2196 63.6122C79.7061 64.4558 79.9869 65.4023 80.0395 66.3747C80.0465 68.1577 78.7895 68.8797 77.2395 67.9857Z" fill="#CEE7FD"/>
<path d="M66.8363 58.7503C66.7831 57.7781 66.5019 56.8319 66.0155 55.9884C65.5291 55.1448 64.8511 54.4276 64.0363 53.8944C62.4873 53.0014 61.2363 53.7243 61.2363 55.5113C61.2882 56.4831 61.5689 57.4289 62.0554 58.2717C62.542 59.1145 63.2207 59.8305 64.0363 60.3614C65.5833 61.2584 66.8363 60.5313 66.8363 58.7503Z" fill="#CEE7FD"/>
<path d="M53.6255 51.1217C53.5732 50.1491 53.2918 49.2025 52.8041 48.3593C52.3165 47.5161 51.6365 46.8001 50.8195 46.2697C49.2705 45.3697 48.0195 46.0937 48.0195 47.8847C48.073 48.8561 48.3543 49.8013 48.8408 50.6438C49.3272 51.4864 50.005 52.2027 50.8195 52.7347C52.3685 53.6307 53.6255 52.9067 53.6255 51.1217Z" fill="#CEE7FD"/>
<path d="M40.4156 43.4975C40.3618 42.5246 40.0796 41.578 39.592 40.7344C39.1043 39.8907 38.4248 39.1737 37.6086 38.6415C36.0606 37.7465 34.8086 38.4705 34.8086 40.2585C34.8614 41.2311 35.1429 42.1775 35.6303 43.0207C36.1177 43.864 36.7972 44.5804 37.6136 45.1116C39.1626 46.0006 40.4156 45.2795 40.4156 43.4975Z" fill="#CEE7FD"/>
<path d="M27.2056 35.8707C27.1522 34.8975 26.8701 33.9506 26.3823 33.1069C25.8944 32.2632 25.2144 31.5464 24.3976 31.0146C22.8516 30.1146 21.5977 30.8446 21.5977 32.6316C21.6491 33.6038 21.9295 34.55 22.4161 35.3932C22.9027 36.2364 23.5817 36.9527 24.3976 37.4836C25.9486 38.3776 27.2016 37.6527 27.2056 35.8707Z" fill="#CEE7FD"/>
<path d="M13.9906 28.2416C13.9398 27.2684 13.6596 26.3211 13.173 25.4769C12.6864 24.6326 12.0072 23.9153 11.1906 23.3835C9.64061 22.4885 8.39062 23.2135 8.39062 25.0005C8.443 25.9725 8.72382 26.9184 9.21033 27.7614C9.69683 28.6044 10.3753 29.3209 11.1906 29.8525C12.7386 30.7515 13.9946 30.0266 13.9906 28.2416Z" fill="#CEE7FD"/>
<path d="M119.657 117.024C118.917 117.024 118.226 116.936 117.604 116.76C109.658 114.524 102.507 111.588 96.3508 108.034C90.2222 104.495 85.1694 100.397 81.3327 95.8522C81.1084 95.5865 81.0192 95.3148 81.06 95.0216L81.1875 94.1055L81.0469 94.0746V59.3074L81.1369 59.3245L81.0515 58.0357C81.0111 57.4249 81.5988 56.6918 82.5852 56.1224L94.292 49.3635C95.4402 48.7005 96.9744 48.3203 98.5012 48.3203C99.2415 48.3203 99.9326 48.4092 100.555 48.5845C108.501 50.8201 115.651 53.756 121.808 57.3107C127.936 60.8489 132.988 64.9474 136.825 69.4925C136.991 69.6891 137.082 69.8876 137.103 70.0999L137.103 70.1047C137.11 71.5697 137.103 106.863 137.102 107.225V107.263L137.105 107.301C137.11 107.36 137.11 107.41 137.106 107.455L137.103 107.489C137.033 108.063 136.464 108.708 135.574 109.222L123.867 115.981C122.718 116.644 121.184 117.024 119.657 117.024Z" fill="white"/>
<path d="M98.5018 49.3203C97.1652 49.3203 95.7786 49.6602 94.7926 50.2295L83.0857 56.9885C82.2758 57.456 82.0625 57.8866 82.0504 57.9756L82.2207 60.5474L82.0475 60.5146V93.2723L82.3058 93.3293L82.053 95.1458C82.0599 95.1578 82.0732 95.1784 82.0974 95.2071C85.8593 99.6633 90.8233 103.687 96.8514 107.168C102.936 110.681 110.009 113.584 117.875 115.798C118.402 115.946 119.019 116.024 119.658 116.024C120.994 116.024 122.381 115.684 123.367 115.115L135.074 108.356C135.856 107.905 136.083 107.487 136.109 107.38C136.109 107.379 136.109 107.378 136.109 107.377L136.103 107.301V107.224C136.106 95.0144 136.109 72.1207 136.104 70.1955C136.097 70.1841 136.085 70.1647 136.062 70.1376C132.3 65.6811 127.336 61.6569 121.308 58.1767C115.223 54.6636 108.15 51.7602 100.285 49.5471C99.7579 49.3987 99.1414 49.3203 98.5018 49.3203ZM98.5018 47.3203C99.3114 47.3203 100.105 47.4185 100.827 47.6219C116.953 52.1594 129.73 59.5366 137.59 68.8474C137.896 69.2087 138.06 69.6016 138.098 70.0039L138.103 70.0052V70.0442C138.111 70.1498 138.103 107.225 138.103 107.225C138.111 107.33 138.112 107.436 138.103 107.542L138.102 107.556C138.017 108.455 137.313 109.373 136.074 110.088L124.367 116.847C122.394 117.986 119.534 118.343 117.333 117.723C101.207 113.185 88.4292 105.808 80.5692 96.4972C80.1494 96 79.9922 95.4445 80.0702 94.8837L80.0475 94.8787V58.1004L80.0544 58.1017C79.9885 57.1067 80.7018 56.0552 82.086 55.2563L93.7926 48.4975C95.1178 47.7323 96.8441 47.3203 98.5018 47.3203Z" fill="#005BEA"/>
<path d="M100.826 47.6211C98.4547 47.0229 95.9449 47.3355 93.7924 48.4971L82.0854 55.2561C80.1134 56.3951 79.4964 58.0461 80.5684 59.3171C88.4284 68.6271 101.206 76.0041 117.332 80.5421C119.704 81.1403 122.214 80.8281 124.366 79.6671L136.073 72.9081C138.045 71.7691 138.662 70.1171 137.589 68.8471C129.729 59.5361 116.952 52.1591 100.826 47.6211Z" fill="#005BEA"/>
<path d="M122.841 75.619C124.017 75.619 125.146 75.1517 125.977 74.3198C126.809 73.4878 127.277 72.3595 127.277 71.183V65.518C127.268 59.8715 125.777 54.3262 122.954 49.436C120.131 44.5459 116.074 40.4823 111.189 37.651C108.934 36.332 106.37 35.6367 103.758 35.6367C101.146 35.6367 98.5811 36.332 96.3268 37.651C94.0569 38.9435 92.1721 40.817 90.8659 43.079C89.5598 45.3411 88.8795 47.91 88.8948 50.522V54.146C88.8948 55.3225 89.3621 56.4508 90.194 57.2828C91.026 58.1147 92.1543 58.582 93.3308 58.582C94.5073 58.582 95.6356 58.1147 96.4675 57.2828C97.2994 56.4508 97.7668 55.3225 97.7668 54.146V50.522C97.761 49.4688 98.0359 48.433 98.5632 47.5212C99.0904 46.6094 99.851 45.8544 100.767 45.334C101.675 44.8022 102.709 44.5218 103.762 44.5218C104.815 44.5218 105.849 44.8022 106.758 45.334C110.296 47.3845 113.235 50.3278 115.28 53.8697C117.325 57.4117 118.404 61.4282 118.411 65.518V71.184C118.411 72.3594 118.877 73.4867 119.708 74.3183C120.539 75.1499 121.665 75.6177 122.841 75.619Z" fill="#CEE7FD"/>
</g>
<defs>
<clipPath id="clip0_9_94144">
<rect width="138.11" height="125" fill="white"/>
</clipPath>
</defs>
</svg>

<svg xmlns="http://www.w3.org/2000/svg" width="139" height="125" fill="none" viewBox="0 0 139 125"><g clip-path="url(#a)"><path fill="#fff" d="M5.936 9.173C3.356 7.685 1.27 8.89 1.27 11.861v17.93a10.3 10.3 0 0 0 4.666 8.072l82.06 47.784v-28.69z"/><path fill="#005bea" d="M87.997 86.498a.85.85 0 0 1-.425-.114L5.092 38.54a11.1 11.1 0 0 1-5.09-8.809V11.8a3.673 3.673 0 0 1 5.94-3.425l82.48 47.844a.85.85 0 0 1 .425.737v28.692a.85.85 0 0 1-.851.85zM3.43 9.326a1.55 1.55 0 0 0-.788.194 2.52 2.52 0 0 0-.94 2.28v17.93a9.52 9.52 0 0 0 4.24 7.337l81.2 47.108V57.446L5.09 9.846a3.43 3.43 0 0 0-1.66-.52"/><path fill="#fff" d="M126.5 79.192 88 56.957v28.694l38.5 22.233c2.581 1.485 4.664.288 4.668-2.686V87.266a10.29 10.29 0 0 0-4.668-8.074"/><path fill="#005bea" d="M128.588 109.373a5.1 5.1 0 0 1-2.515-.753l-38.5-22.235a.85.85 0 0 1-.425-.737V56.957a.85.85 0 0 1 1.277-.737l38.5 22.235a11.08 11.08 0 0 1 5.087 8.81v17.931a4.08 4.08 0 0 1-1.789 3.75 3.23 3.23 0 0 1-1.635.427M88.85 85.158l38.076 21.988a2.544 2.544 0 0 0 2.452.328 2.5 2.5 0 0 0 .939-2.278V87.265a9.5 9.5 0 0 0-4.238-7.336l-37.225-21.5z"/><path fill="#1b69ff" d="M121.556 91.285c.007.319-.056.635-.184.927q-.165-.157-.353-.285c-.794-.458-1.437-.092-1.449.81a2 2 0 0 1-.3-.138l-2.625-1.515a3.26 3.26 0 0 0-1.458-2.525c-.807-.463-1.458-.088-1.458.842l-2.917-1.681a3.2 3.2 0 0 0-1.455-2.522c-.8-.466-1.461-.091-1.461.837l-3.648-2.1c-.746.891-2.033 1.02-3.5.172a9.26 9.26 0 0 1-4.191-7.248c0-2.671 1.876-3.751 4.191-2.415a9.07 9.07 0 0 1 3.5 4.222l15.022 8.672a5.06 5.06 0 0 1 2.286 3.947m-19.277-11.128a3.38 3.38 0 0 0-1.533-2.654c-.846-.49-1.537-.093-1.533.885a3.39 3.39 0 0 0 1.533 2.654c.849.492 1.536.097 1.533-.883z"/><path fill="#cee7fd" d="M77.24 67.986a6.18 6.18 0 0 1-2.8-4.85c0-1.788 1.252-2.508 2.8-1.617a6.2 6.2 0 0 1 2.8 4.856c.006 1.783-1.25 2.505-2.8 1.61M66.836 58.75a6.2 6.2 0 0 0-2.8-4.856c-1.549-.893-2.8-.17-2.8 1.617a6.18 6.18 0 0 0 2.8 4.85c1.547.897 2.8.17 2.8-1.61M53.626 51.122a6.18 6.18 0 0 0-2.806-4.852c-1.55-.9-2.8-.176-2.8 1.615a6.2 6.2 0 0 0 2.8 4.85c1.548.896 2.806.172 2.806-1.613M40.416 43.498a6.2 6.2 0 0 0-2.807-4.856c-1.548-.896-2.8-.172-2.8 1.616a6.19 6.19 0 0 0 2.805 4.854c1.549.889 2.802.167 2.802-1.614M27.206 35.87a6.2 6.2 0 0 0-2.808-4.855c-1.546-.9-2.8-.17-2.8 1.617a6.18 6.18 0 0 0 2.8 4.852c1.55.894 2.804.169 2.808-1.613M13.99 28.242a6.18 6.18 0 0 0-2.8-4.858c-1.55-.896-2.8-.17-2.8 1.616a6.19 6.19 0 0 0 2.8 4.852c1.549.9 2.805.175 2.8-1.61"/><path fill="#fff" d="M119.657 117.024c-.74 0-1.431-.088-2.053-.264-7.946-2.236-15.097-5.172-21.253-8.726-6.129-3.539-11.182-7.637-15.018-12.182-.225-.266-.314-.537-.273-.83l.127-.916-.14-.031V59.307l.09.017-.085-1.288c-.04-.611.547-1.344 1.533-1.914l11.707-6.758c1.148-.663 2.682-1.044 4.21-1.044.74 0 1.43.09 2.053.264 7.946 2.236 15.096 5.172 21.253 8.727 6.128 3.538 11.18 7.636 15.017 12.182.166.196.257.395.278.607v.005c.007 1.465 0 36.758-.001 37.12v.038l.003.038a1 1 0 0 1 .001.154l-.003.034c-.07.574-.639 1.219-1.529 1.733l-11.707 6.759c-1.149.663-2.683 1.043-4.21 1.043"/><path fill="#005bea" d="M98.502 49.32c-1.337 0-2.723.34-3.71.91l-11.706 6.759c-.81.467-1.023.898-1.036.987l.17 2.571-.172-.032v32.757l.258.057-.253 1.817a.4.4 0 0 0 .044.061c3.762 4.456 8.726 8.48 14.754 11.961 6.085 3.513 13.158 6.416 21.024 8.63a6.7 6.7 0 0 0 1.783.226c1.336 0 2.723-.34 3.709-.909l11.707-6.759c.782-.451 1.009-.869 1.035-.976v-.003l-.006-.076v-.077c.003-12.21.006-35.103.001-37.029a.4.4 0 0 0-.042-.057c-3.762-4.457-8.726-8.481-14.754-11.961-6.085-3.513-13.158-6.417-21.023-8.63a6.7 6.7 0 0 0-1.783-.227m0-2c.81 0 1.603.099 2.325.302 16.126 4.537 28.903 11.915 36.763 21.225.306.362.47.755.508 1.157l.005.001v.04c.008.105 0 37.18 0 37.18q.013.158 0 .317l-.001.014c-.085.899-.789 1.817-2.028 2.532l-11.707 6.759c-1.973 1.139-4.833 1.496-7.034.876-16.126-4.538-28.904-11.915-36.764-21.226-.42-.497-.577-1.052-.499-1.613l-.022-.005V58.1l.006.002c-.066-.995.648-2.047 2.032-2.846l11.707-6.758c1.325-.766 3.051-1.178 4.709-1.178"/><path fill="#005bea" d="M100.826 47.621a9.78 9.78 0 0 0-7.034.876l-11.707 6.76c-1.972 1.138-2.589 2.79-1.517 4.06 7.86 9.31 20.638 16.687 36.764 21.225a9.78 9.78 0 0 0 7.034-.875l11.707-6.759c1.972-1.139 2.589-2.79 1.516-4.06-7.86-9.312-20.637-16.689-36.763-21.227"/><path fill="#cee7fd" d="M122.841 75.619a4.434 4.434 0 0 0 4.436-4.436v-5.665a32.27 32.27 0 0 0-16.088-27.867 14.72 14.72 0 0 0-14.862 0 14.71 14.71 0 0 0-7.432 12.871v3.624a4.436 4.436 0 1 0 8.872 0v-3.624a5.93 5.93 0 0 1 3-5.188 5.93 5.93 0 0 1 5.991 0 23.38 23.38 0 0 1 11.653 20.184v5.666a4.433 4.433 0 0 0 4.43 4.435"/></g><defs><clipPath id="a"><path fill="#fff" d="M0 0h138.11v125H0z"/></clipPath></defs></svg>
